X:1
L:1/8
Q:1/8=120
M:2/4
K:D
 f/g/f/e/ dd/B/ | AD FE/F/ | GE e/f/e/d/ | cB BA | f/g/f/e/ d>B | AD FE/F/ | GE eg | fd d2 :| 
 Af f/e/f/d/ | Ag g/f/g/d/ | Af fd | e/f/e/d/ BA | Af f/e/f/d/ | Ag g2 | ba f/g/a/f/ | ed d2 :|
